X:50
T:The Sailors are All at the Bar
Z:Jack Campin, http://www.campin.me.uk/
S:Northumbrian Minstrelsy
N:the words are not printed as an underlay
N:and the tune doesn't quite fit
M:9/8
L:1/8
K:G
BGB AFA  G2B|AcA FAF AcA |
BGB AFA  G2c|def gdc BAG||
F2f ege Tf3 |cde fcB AGF |
G2g ege Tg3 |def gdc BAG|]

